X:112
T:Quarrelsome piper, The
R:Hornpipe
O:Scotland
M:4/4
K:G
E>F|\
(3GAG (3FGF (3EFE (3DED|B>D G>B A>G E>F|\
G>B d>g e>c A>F|G>g f>e (3ded (3cBA|
(3GAG (3FGF (3EFE (3DED|B>D G>B A>G E>F|\
G>B d>g e>c A>F|G>B A>F G2::
B2|\
e>B (3BBB g>B (3BBB|e>B g>B e>B (3BBB|\
d>A (3AAA f>A (3AAA|d>g f>e (3ded (3cBA|
(3GAG (3FGF (3EFE (3DED|B>D G>B A>G E>F|\
G>B d>g e>c A>F|G>B A>F G2:|
